X: 108
T:Kinloss
K:D
M:4/4
L:1/8
R:Strathspey
C:JS Brown
B|"D"A/2G/2F/2E/2 D>E F<A A>d|"G"B>A B>d "A"c<e e2|"D"A/2G/2F/2E/2 D>E
F<A A>d|"G"B>d "A"c>a "D"f<d d:||!
g|"D"f>a f<d "A"c>e c<A|"Bm"d>f d<B "D"A>d A<F|"G"G/2A/2B/2e/2 d>B
"D"A<d d2|"A"c>e a>e "D"f<d d:||
% <A name="D1X109"></A>

